X: 4950
T: Breeches Buttoned On, The
R: polka
M: 2/4
K: Edorian
E>F GF|Ee dB|GF/G/ AF|EF D2|
E>F GF|Ee dB|GF/G/ AF|FE/D/ E2||
Be e>f|gf ed|Bd d>e|dc BA|
Be e>f|gf ed|GF/G/ AF|FE/D/ E2||

